X: 532
T: Abbey, The
R: reel
M: 4/4
K: Adorian
|A3B A2GE|A2GA BedB|A3B AGED|G3A BedB|
A3B A2GE|A2GA BedB|AGAB AGED|G3A Bddg|
eggg gaba|gabg aged|egg2 a2ga|bgef gedg|
eggg agbg|agbg aged|eggg gaga|bgef gedB|

